actions/symbolic/distribute-vertical-center-symbolic.svg

<?xml version="1.0" encoding="UTF-8" standalone="no"?>
<svg
   xmlns:dc="http://purl.org/dc/elements/1.1/"
   xmlns:cc="http://creativecommons.org/ns#"
   xmlns:rdf="http://www.w3.org/1999/02/22-rdf-syntax-ns#"
   xmlns:svg="http://www.w3.org/2000/svg"
   xmlns="http://www.w3.org/2000/svg"
   xmlns:xlink="http://www.w3.org/1999/xlink"
   xmlns:sodipodi="http://sodipodi.sourceforge.net/DTD/sodipodi-0.dtd"
   xmlns:inkscape="http://www.inkscape.org/namespaces/inkscape"
   inkscape:version="1.0 (1.0+r73+1)"
   sodipodi:docname="distribute-vertical-center-symbolic.svg"
   height="16"
   width="16"
   version="1.1"
   id="svg57">
  <sodipodi:namedview
     inkscape:current-layer="svg57"
     inkscape:window-maximized="1"
     inkscape:window-y="30"
     inkscape:window-x="0"
     inkscape:cy="9.2476517"
     inkscape:cx="-0.13795286"
     inkscape:zoom="22.627417"
     showgrid="false"
     id="namedview69"
     inkscape:window-height="1377"
     inkscape:window-width="2560"
     inkscape:pageshadow="2"
     inkscape:pageopacity="0"
     guidetolerance="10"
     gridtolerance="10"
     objecttolerance="10"
     borderopacity="1"
     bordercolor="#666666"
     pagecolor="#ffffff" />
  <metadata
     id="metadata63">
    <rdf:RDF>
      <cc:Work
         rdf:about="">
        <dc:format>image/svg+xml</dc:format>
        <dc:type
           rdf:resource="http://purl.org/dc/dcmitype/StillImage" />
        <dc:title></dc:title>
      </cc:Work>
    </rdf:RDF>
  </metadata>
  <defs
     id="defs61">
    <linearGradient
       id="linearGradient1085"
       gradientTransform="matrix(0.40540511,0,0,0.51351351,2.269687,-0.324319)"
       gradientUnits="userSpaceOnUse"
       x1="23.99999"
       x2="23.99999"
       y1="6.4736748"
       y2="41.526306">
      <stop
         offset="0"
         stop-color="#fff"
         id="stop1077" />
      <stop
         offset="0"
         stop-color="#fff"
         stop-opacity=".235294"
         id="stop1079" />
      <stop
         offset="1"
         stop-color="#fff"
         stop-opacity=".156863"
         id="stop1081" />
      <stop
         offset="1"
         stop-color="#fff"
         stop-opacity=".392157"
         id="stop1083" />
    </linearGradient>
    <linearGradient
       id="linearGradient1075"
       gradientTransform="matrix(0.40540511,0,0,0.51351351,2.269687,-0.324319)"
       gradientUnits="userSpaceOnUse"
       x1="23.99999"
       x2="23.99999"
       y1="6.4736748"
       y2="41.526306">
      <stop
         offset="0"
         stop-color="#fff"
         id="stop1067" />
      <stop
         offset="0.00000024"
         stop-color="#fff"
         stop-opacity=".235294"
         id="stop1069" />
      <stop
         offset="1"
         stop-color="#fff"
         stop-opacity=".156863"
         id="stop1071" />
      <stop
         offset="1"
         stop-color="#fff"
         stop-opacity=".392157"
         id="stop1073" />
    </linearGradient>
    <linearGradient
       id="linearGradient987">
      <stop
         style="stop-color:#cc3b02;stop-opacity:1;"
         offset="0"
         id="stop983" />
      <stop
         id="stop991"
         offset="0.875"
         style="stop-color:#cc3b02;stop-opacity:1" />
      <stop
         style="stop-color:#cc3b02;stop-opacity:0;"
         offset="1"
         id="stop985" />
    </linearGradient>
    <linearGradient
       y2="47.013336"
       y1="0.98520601"
       x2="25.132275"
       x1="25.132275"
       gradientUnits="userSpaceOnUse"
       gradientTransform="matrix(0.48571543,0,0,0.45629666,-34.78968,-5.734851)"
       id="linearGradient874">
      <stop
         id="stop870"
         stop-color="#f4f4f4"
         offset="0"
         style="stop-color:#fafafa;stop-opacity:1" />
      <stop
         id="stop872"
         stop-color="#dbdbdb"
         offset="1"
         style="stop-color:#d4d4d4;stop-opacity:1" />
    </linearGradient>
    <linearGradient
       xlink:href="#linearGradient874"
       id="linearGradient1061"
       gradientUnits="userSpaceOnUse"
       gradientTransform="matrix(0,-0.5,1.2857143,0,270.2857,-33.749939)"
       x1="-68.674088"
       y1="-203.99998"
       x2="-80.341354"
       y2="-203.99998" />
    <linearGradient
       xlink:href="#linearGradient1085"
       id="linearGradient1063"
       gradientUnits="userSpaceOnUse"
       gradientTransform="matrix(0,-0.40000001,1.3999916,0,293.59827,-26.299951)"
       x1="-70.749878"
       y1="-203.99998"
       x2="-78.249878"
       y2="-203.99998" />
    <linearGradient
       gradientTransform="rotate(90,6.7498995,15.250101)"
       spreadMethod="reflect"
       gradientUnits="userSpaceOnUse"
       y2="6"
       x2="3.6243253"
       y1="14"
       x1="3.6243253"
       id="linearGradient989-8"
       xlink:href="#linearGradient987" />
    <linearGradient
       gradientTransform="matrix(0,1,-1.0952381,0,23.142857,8.500201)"
       spreadMethod="reflect"
       gradientUnits="userSpaceOnUse"
       y2="6.4956522"
       x2="3.5515943"
       y1="13.826087"
       x1="3.5515943"
       id="linearGradient953-0"
       xlink:href="#linearGradient951-2" />
    <linearGradient
       id="linearGradient951-2">
      <stop
         id="stop947-3"
         offset="0"
         style="stop-color:#ffa154;stop-opacity:1;" />
      <stop
         style="stop-color:#ffa154;stop-opacity:0.92647058"
         offset="0.87188613"
         id="stop955-7" />
      <stop
         id="stop949-5"
         offset="1"
         style="stop-color:#ffa154;stop-opacity:0;" />
    </linearGradient>
    <linearGradient
       gradientTransform="rotate(90,11.25,10.75)"
       spreadMethod="reflect"
       gradientUnits="userSpaceOnUse"
       y2="6"
       x2="3.6243253"
       y1="14"
       x1="3.6243253"
       id="linearGradient989-9"
       xlink:href="#linearGradient987" />
    <linearGradient
       gradientTransform="matrix(0,1,-1.0952381,0,23.142857,-0.5)"
       spreadMethod="reflect"
       gradientUnits="userSpaceOnUse"
       y2="6.4956522"
       x2="3.5515943"
       y1="13.826087"
       x1="3.5515943"
       id="linearGradient953-9"
       xlink:href="#linearGradient951-2" />
  </defs>
  <linearGradient
     id="a"
     gradientTransform="matrix(0.48571543,0,0,0.45629666,-34.78968,-5.734851)"
     gradientUnits="userSpaceOnUse"
     x1="25.132275"
     x2="25.132275"
     y1="0.98520601"
     y2="47.013336">
    <stop
       offset="0"
       stop-color="#f4f4f4"
       id="stop2" />
    <stop
       offset="1"
       stop-color="#dbdbdb"
       id="stop4" />
  </linearGradient>
  <linearGradient
     id="b"
     gradientTransform="matrix(0.25378586,0,0,0.30501865,-43.521986,-5.539135)"
     gradientUnits="userSpaceOnUse"
     x1="-51.786404"
     x2="-51.786404"
     y1="50.786446"
     y2="2.9062469">
    <stop
       offset="0"
       stop-opacity=".339506"
       id="stop7" />
    <stop
       offset="1"
       stop-opacity=".246914"
       id="stop9" />
  </linearGradient>
  <linearGradient
     id="c"
     gradientTransform="matrix(0.40540511,0,0,0.51351351,2.269687,-0.324319)"
     gradientUnits="userSpaceOnUse"
     x1="23.99999"
     x2="23.99999"
     y1="6.4736748"
     y2="41.526306">
    <stop
       offset="0"
       stop-color="#fff"
       id="stop12" />
    <stop
       offset=".05838298"
       stop-color="#fff"
       stop-opacity=".235294"
       id="stop14" />
    <stop
       offset="1"
       stop-color="#fff"
       stop-opacity=".156863"
       id="stop16" />
    <stop
       offset="1"
       stop-color="#fff"
       stop-opacity=".392157"
       id="stop18" />
  </linearGradient>
  <linearGradient
     id="d"
     gradientUnits="userSpaceOnUse"
     x1="-73.999916"
     x2="-73.999916"
     xlink:href="#b"
     y1="-208.00011"
     y2="-200.00011" />
  <linearGradient
     id="e"
     gradientUnits="userSpaceOnUse"
     x1="-70.749878"
     x2="-78.249878"
     xlink:href="#linearGradient1075"
     y1="-204.24527"
     y2="-204.24527"
     gradientTransform="matrix(0,-0.40000003,1.7999893,0,375.19778,-17.299954)" />
  <linearGradient
     id="f"
     gradientUnits="userSpaceOnUse"
     x1="-68.497314"
     x2="-80.208771"
     xlink:href="#linearGradient874"
     y1="-203.99998"
     y2="-203.99998"
     gradientTransform="matrix(0,-0.5,1.5714286,0,328.57142,-24.749939)" />
  <linearGradient
     id="g"
     gradientUnits="userSpaceOnUse"
     x1="-479.99991"
     x2="-479.99991"
     xlink:href="#b"
     y1="128.99989"
     y2="136.99989" />
  <linearGradient
     id="h"
     gradientUnits="userSpaceOnUse"
     x1="-475.99991"
     x2="-475.99991"
     xlink:href="#linearGradient874"
     y1="136.99989"
     y2="128.99989"
     gradientTransform="matrix(1,0,0,-1,491,143.99614)" />
  <linearGradient
     id="i"
     gradientUnits="userSpaceOnUse"
     x1="-478.99991"
     x2="-478.99991"
     xlink:href="#c"
     y1="134.99989"
     y2="130.99989"
     gradientTransform="matrix(1,0,0,-1,491,143.99614)" />
  <linearGradient
     id="j">
    <stop
       offset="0"
       stop-color="#ce5c00"
       id="stop27" />
    <stop
       offset="1"
       stop-color="#ce5c00"
       stop-opacity="0"
       id="stop29" />
  </linearGradient>
  <linearGradient
     id="k"
     gradientTransform="rotate(180,197.99995,490.5)"
     gradientUnits="userSpaceOnUse"
     x1="187.60938"
     x2="186.93732"
     xlink:href="#j"
     y1="489.35938"
     y2="489.35938" />
  <linearGradient
     id="l">
    <stop
       offset="0"
       stop-color="#fcaf3e"
       id="stop33" />
    <stop
       offset="1"
       stop-color="#fcaf3e"
       stop-opacity="0"
       id="stop35" />
  </linearGradient>
  <linearGradient
     id="m"
     gradientTransform="rotate(180,197.99995,490.5)"
     gradientUnits="userSpaceOnUse"
     x1="187.81554"
     x2="187.1716"
     xlink:href="#l"
     y1="489.54688"
     y2="489.54688" />
  <linearGradient
     id="n"
     gradientUnits="userSpaceOnUse"
     x1="187.60938"
     x2="186.93732"
     xlink:href="#j"
     y1="489.35938"
     y2="489.35938" />
  <linearGradient
     id="o"
     gradientUnits="userSpaceOnUse"
     x1="187.81554"
     x2="187.1716"
     xlink:href="#l"
     y1="489.54688"
     y2="489.54688" />
  <path
     d="M 2.5,15.5 V 9.4999999 h 11 V 15.5 Z"
     stroke-miterlimit="3"
     id="path41"
     style="fill:#555761;fill-opacity:0.93333334;stroke:none;stroke-width:1;stroke-linejoin:round;stroke-miterlimit:3;opacity:0.1" />
  <path
     d="m 3.5,6.5 v -6 h 9 v 6 z"
     stroke-miterlimit="3"
     id="path41-0"
     style="fill:#555761;fill-opacity:0.93333334;stroke:none;stroke-width:1;stroke-linejoin:round;stroke-miterlimit:3;opacity:0.1" />
  <path
     id="rect3863"
     d="m 16,13.500201 h -2.5 v -2 H 16 Z m -4.5,0 H 8.4999999 v -2 H 11.5 Z m -5.0000001,0 H 3.5 v -2 h 2.9999999 z m -4.9999999,0 H 0 v -2 h 1.5 z"
     style="opacity:1;vector-effect:none;fill:#555761;fill-opacity:1;stroke:none;stroke-width:1;stroke-linecap:butt;stroke-linejoin:miter;stroke-miterlimit:4;stroke-dasharray:none;stroke-dashoffset:0;stroke-opacity:1;marker:none;paint-order:normal" />
  <path
     id="rect3863-9"
     d="m 16,4.5 h -2.5 v -2 H 16 Z m -4.5,0 H 8.4999999 v -2 H 11.5 Z m -5.0000001,0 H 3.5 v -2 H 6.4999999 Z M 1.5,4.5 H 0 v -2 h 1.5 z"
     style="opacity:1;vector-effect:none;fill:#555761;fill-opacity:1;stroke:none;stroke-width:1;stroke-linecap:butt;stroke-linejoin:miter;stroke-miterlimit:4;stroke-dasharray:none;stroke-dashoffset:0;stroke-opacity:1;marker:none;paint-order:normal" />
  <g
     transform="rotate(90,1.2791653,9.4971802)"
     id="g926">
    <path
       sodipodi:nodetypes="ccccccccssssc"
       id="path926"
       d="m -2.7180148,7.7763457 v -0.501953 c -5.87e-4,-0.174945 -0.04729,-0.346676 -0.135,-0.498047 h 0.635 v -8.0000002 h -0.49964 v -0.5 c -8.38e-4,-0.175786 -0.04664,-0.348245 -0.13536,-0.5 h 1.135 c 0.277002,0 0.5,0.222999 0.5,0.5 v 9.0000002 c 0,0.277002 -0.223,0.5 -0.5,0.5 z"
       style="vector-effect:none;fill:#555761;fill-opacity:1;stroke:none;stroke-width:1;stroke-linecap:butt;stroke-linejoin:miter;stroke-miterlimit:4;stroke-dasharray:none;stroke-dashoffset:0;stroke-opacity:1;marker:none;paint-order:normal" />
    <path
       style="vector-effect:none;fill:#555761;fill-opacity:1;stroke:none;stroke-width:1;stroke-linecap:butt;stroke-linejoin:miter;stroke-miterlimit:4;stroke-dasharray:none;stroke-dashoffset:0;stroke-opacity:1;marker:none;paint-order:normal"
       d="m -6.7180148,7.7763457 v -0.501953 c 5.87e-4,-0.174945 0.04729,-0.346676 0.135,-0.498047 h -0.635 v -8.0000002 h 0.49964 v -0.5 c 8.38e-4,-0.175786 0.04664,-0.348245 0.13536,-0.5 h -1.135 c -0.277002,0 -0.5,0.222999 -0.5,0.5 v 9.0000002 c 0,0.277002 0.223,0.5 0.5,0.5 z"
       id="path946"
       sodipodi:nodetypes="ccccccccssssc" />
  </g>
  <g
     transform="rotate(90,-7.7208349,18.49718)"
     id="g930">
    <path
       style="vector-effect:none;fill:#555761;fill-opacity:1;stroke:none;stroke-width:1;stroke-linecap:butt;stroke-linejoin:miter;stroke-miterlimit:4;stroke-dasharray:none;stroke-dashoffset:0;stroke-opacity:1;marker:none;paint-order:normal"
       d="m -11.718015,8.7763457 v -0.501954 c -5.87e-4,-0.174944 -0.04729,-0.346676 -0.135,-0.498046 h 0.635 V -2.2236547 h -0.49964 v -0.5 c -8.38e-4,-0.175786 -0.04664,-0.348245 -0.13536,-0.5 h 1.135 c 0.277002,0 0.5,0.222999 0.5,0.5 V 8.2763457 c 0,0.277001 -0.223,0.5 -0.5,0.5 z"
       id="path948"
       sodipodi:nodetypes="ccccccccssssc" />
    <path
       sodipodi:nodetypes="ccccccccssssc"
       id="path950"
       d="m -15.718015,8.7763457 v -0.501954 c 5.87e-4,-0.174944 0.04729,-0.346676 0.135,-0.498046 h -0.635 V -2.2236547 h 0.49964 v -0.5 c 8.38e-4,-0.175786 0.04664,-0.348245 0.13536,-0.5 h -1.135 c -0.277002,0 -0.5,0.222999 -0.5,0.5 V 8.2763457 c 0,0.277001 0.223058,0.494326 0.5,0.5 z"
       style="vector-effect:none;fill:#555761;fill-opacity:1;stroke:none;stroke-width:1;stroke-linecap:butt;stroke-linejoin:miter;stroke-miterlimit:4;stroke-dasharray:none;stroke-dashoffset:0;stroke-opacity:1;marker:none;paint-order:normal" />
  </g>
</svg>

<svg
        xmlns='http://www.w3.org/2000/svg'
        xmlns:svg='http://www.w3.org/2000/svg'
        width='16'
        height='16'>
  <path
          opacity='1'
          fill='url(#gpa:foreground) #555761'
          fill-opacity='0.1'
          fill-rule='nonzero'
          stroke-miterlimit='3'
          d='M 2.5 15.5 L 2.5 9.5 L 13.5 9.5 L 13.5 15.5 Z'
          class="foreground">
  </path>
  <path
          opacity='1'
          fill='url(#gpa:foreground) #555761'
          fill-opacity='0.1'
          fill-rule='nonzero'
          stroke-miterlimit='3'
          d='M 3.5 6.5 L 3.5 0.5 L 12.5 0.5 L 12.5 6.5 Z'
          class="foreground">
  </path>
  <path
          fill='url(#gpa:foreground) #555761'
          fill-opacity='1'
          fill-rule='nonzero'
          paint-order='normal'
          d='M 16 13.5 L 13.5 13.5 L 13.5 11.5 L 16 11.5 Z M 11.5 13.5 L 8.5 13.5 L 8.5 11.5 L 11.5 11.5 Z M 6.5 13.5 L 3.5 13.5 L 3.5 11.5 L 6.5 11.5 Z M 1.5 13.5 L 0 13.5 L 0 11.5 L 1.5 11.5 Z'
          class="foreground">
  </path>
  <path
          fill='url(#gpa:foreground) #555761'
          fill-opacity='1'
          fill-rule='nonzero'
          paint-order='normal'
          d='M 16 4.5 L 13.5 4.5 L 13.5 2.5 L 16 2.5 Z M 11.5 4.5 L 8.5 4.5 L 8.5 2.5 L 11.5 2.5 Z M 6.5 4.5 L 3.5 4.5 L 3.5 2.5 L 6.5 2.5 Z M 1.5 4.5 L 0 4.5 L 0 2.5 L 1.5 2.5 Z'
          class="foreground">
  </path>
  <g
          transform='rotate(90, 1.2792, 9.4972)'
          fill='url(#gpa:foreground) #555761'
          fill-opacity='1'
          fill-rule='nonzero'
          class="foreground">
    <path
            paint-order='normal'
            d='M -2.718 7.7763 L -2.718 7.27435 C -2.71859 7.09941, -2.76529 6.92767, -2.853 6.7763 L -2.218 6.7763 L -2.218 -1.2237 L -2.71764 -1.2237 L -2.71764 -1.7237 C -2.71848 -1.89949, -2.76428 -2.07194, -2.853 -2.2237 L -1.718 -2.2237 C -1.441 -2.2237, -1.218 -2.0007, -1.218 -1.7237 L -1.218 7.2763 C -1.218 7.5533, -1.441 7.7763, -1.718 7.7763 Z'>
    </path>
    <path
            paint-order='normal'
            d='M -6.718 7.7763 L -6.718 7.27435 C -6.71741 7.09941, -6.67071 6.92767, -6.583 6.7763 L -7.218 6.7763 L -7.218 -1.2237 L -6.71836 -1.2237 L -6.71836 -1.7237 C -6.71752 -1.89949, -6.67172 -2.07194, -6.583 -2.2237 L -7.718 -2.2237 C -7.995 -2.2237, -8.218 -2.0007, -8.218 -1.7237 L -8.218 7.2763 C -8.218 7.5533, -7.995 7.7763, -7.718 7.7763 Z'>
    </path>
  </g>
  <g
          transform='rotate(90, -7.7208, 18.497)'
          fill='url(#gpa:foreground) #555761'
          fill-opacity='1'
          fill-rule='nonzero'
          class="foreground">
    <path
            paint-order='normal'
            d='M -11.718 8.7763 L -11.718 8.27435 C -11.7186 8.09941, -11.7653 7.92767, -11.853 7.7763 L -11.218 7.7763 L -11.218 -2.2237 L -11.7176 -2.2237 L -11.7176 -2.7237 C -11.7185 -2.89949, -11.7643 -3.07194, -11.853 -3.2237 L -10.718 -3.2237 C -10.441 -3.2237, -10.218 -3.0007, -10.218 -2.7237 L -10.218 8.2763 C -10.218 8.5533, -10.441 8.7763, -10.718 8.7763 Z'>
    </path>
    <path
            paint-order='normal'
            d='M -15.718 8.7763 L -15.718 8.27435 C -15.7174 8.09941, -15.6707 7.92767, -15.583 7.7763 L -16.218 7.7763 L -16.218 -2.2237 L -15.7184 -2.2237 L -15.7184 -2.7237 C -15.7175 -2.89949, -15.6717 -3.07194, -15.583 -3.2237 L -16.718 -3.2237 C -16.995 -3.2237, -17.218 -3.0007, -17.218 -2.7237 L -17.218 8.2763 C -17.218 8.5533, -16.9949 8.77063, -16.718 8.7763 Z'>
    </path>
  </g>
</svg>
